X: 43148
T: Winning Ticket, The
R: jig
M: 6/8
K: Gmajor
|:GFE|D[B,E]D G2 A|BGB de=f|ecg dBG|AcB AGE|
D[B,E]D G2 A|BG/A/B de=f|ecg dBA|G3:|
|:GB/c/d|g2 a bag|afd d2 e|=f2 g agf|e/f/ge cBc|
df/e/d dBA|GB/c/d g2 f|e/f/ge dBA|G2 D:|

